X:1
T:Easter Hymn, 77.77 D
T:Lyra Davidica, 1708
T:Easter Hymn, 77.77 D
T:Public Domain
C:Lyra Davidica, 1708
Z:Public Domain
%%score ( 1 2 ) ( 3 4 )
L:1/8
M:4/4
K:C
V:1 treble 
V:2 treble 
V:3 bass 
V:4 bass 
V:1
 C2 [CE]2 [DG]2 C2 | [CF]2 [FA]2 [FA]2 [EG]2 | EFGC CB,EF | [CE]2 [B,D]2 C4 | %4
 [CF]2 [CG]2 [CA]2 [CG]2 | CB, [CE]2 [CE]2 [B,D]2 | EFGC CB,EF | [CE]2 [B,D]2 C4 | B2 c2 [Gd]2 G2 | %9
 [Gc]2 [Fd]2 [Ee]4 |!f! BcdG G^FBc | [GB]2 [^FA]2 G4 |!ff! [B,G][CA][DB][B,G] [Cc]2 [CE]2 | %13
 [CF]2 [FA]2 [FA]2 [EG]2 |!fff! [Ec][FB][Gc][EG] AB[Gc][Fd] | [Ec]2 GF [Ec]4 |] %16
V:2
 x8 | x8 | C4 F2 C2 | x8 | x8 | F2 x6 | C4 F2 C2 | x8 | G3 x5 | x8 | G4 c2 G2 | x8 | x8 | x8 | %14
 x4 F2 x2 | x2 B2 x4 |] %16
V:3
 [C,E,]2 [C,G,]2 [B,,G,]2 [C,E,]2 | [A,C]2 [F,C]2 [C,C]4 | C,D, E,2 A,F,[C,G,][A,,F,] | %3
 G,3 F, [C,E,]4 | [A,,F,]2 [C,E,]2 F,2 [E,G,]2 | A,F, [C,G,]2 [G,,G,]4 | %6
 C,D, E,2 A,F,[C,G,][A,,F,] | G,3 F, [C,E,]4 | [G,,D]2 [A,,C]2 [B,,B,]2 G,F, | E,2 D,2 [C,C]4 | %10
!f! G,A, B,2 [A,D]2 [G,D][E,C] | D3 C [G,,B,]4 |!ff! G,3 G,2 F,CB, | [A,C]2 [F,C]2 [C,C]4 | %14
!fff! C,D,E,C, [F,C][D,D][E,C][F,A,] | G,4 [C,G,]4 |] %16
V:4
 x8 | x8 | G,4 D,2 x2 | G,,4 x4 | x8 | D,2 x6 | G,4 D,2 x2 | G,,4 x4 | x6 B,2 | C3 x5 | D4 x4 | %11
 D,4 x4 | x8 | x8 | G,3 C x4 | x8 |] %16

